img/icons/icon-profile.svg

<?xml version="1.0" encoding="UTF-8"?>
<svg width="58px" height="70px" viewBox="0 0 58 70" version="1.1" xmlns="http://www.w3.org/2000/svg" xmlns:xlink="http://www.w3.org/1999/xlink">
    <!-- Generator: Sketch 59.1 (86144) - https://sketch.com -->
    <title>icon-profile</title>
    <desc>Created with Sketch.</desc>
    <g id="Page-1" stroke="none" stroke-width="1" fill="none" fill-rule="evenodd">
        <g id="icon-profile" fill="#FFFFFF" fill-rule="nonzero">
            <path d="M2.34927,23.2326 C2.09511,22.9783 1.74239,22.832 1.38282,22.832 C1.02324,22.832 0.67065,22.9783 0.41622,23.2326 C0.16177,23.4869 0.015625,23.8396 0.015625,24.1992 C0.015625,24.5587 0.16177,24.9114 0.41622,25.1658 C0.670514,25.4201 1.02324,25.5663 1.38282,25.5663 C1.74239,25.5663 2.09511,25.4201 2.34927,25.1658 C2.60372,24.9114 2.75,24.5587 2.75,24.1992 C2.75,23.8396 2.60372,23.4869 2.34927,23.2326 Z" id="Path"></path>
            <path d="M53.8829,0 L26.22,0 C25.4652,0 24.8529,0.612226 24.8529,1.36719 C24.8529,2.12215 25.4652,2.73438 26.22,2.73438 L53.8829,2.73438 C54.6367,2.73438 55.25,3.34769 55.25,4.10157 L55.25,65.8984 C55.25,66.6522 54.6367,67.2657 53.8829,67.2657 L4.11718,67.2657 C3.36332,67.2657 2.75,66.6522 2.75,65.8984 L2.75,29.3034 C2.75,28.5483 2.13777,27.9362 1.38282,27.9362 C0.627853,27.9362 0.015625,28.5483 0.015625,29.3034 L0.015625,65.8984 C0.015625,68.16 1.85559,70 4.11718,70 L53.8829,70 C56.1444,70 57.9843,68.16 57.9843,65.8984 L57.9843,4.10157 C57.9843,1.83996 56.1444,0 53.8829,0 Z" id="Path"></path>
            <path d="M29,5.46875 C28.0698,5.46875 27.1349,5.53984 26.2214,5.67984 C25.4751,5.79441 24.9628,6.49209 25.0771,7.23845 C25.1916,7.98478 25.8897,8.49639 26.6358,8.38264 C27.4128,8.26342 28.2083,8.20313 29,8.20313 C37.5188,8.20313 44.4494,15.1337 44.4494,23.6524 C44.4494,27.4355 43.0819,30.9044 40.8162,33.5934 C39.8137,31.8693 38.4444,30.3821 36.7823,29.2287 C35.8122,28.5555 34.77,28.0183 33.6789,27.6204 C34.9242,26.4032 35.6992,24.7071 35.6992,22.8323 L35.6992,21.4993 C35.6992,17.8052 32.6941,14.7999 29,14.7999 C25.3062,14.7999 22.3008,17.8052 22.3008,21.4993 L22.3008,22.8323 C22.3008,24.7071 23.0757,26.4032 24.3211,27.6204 C23.2303,28.0183 22.1881,28.5555 21.218,29.2287 C19.5479,30.3878 18.173,31.8833 17.1693,33.6177 C15.443,31.5661 14.2363,29.0428 13.7641,26.228 C13.6393,25.4835 12.9337,24.9813 12.1897,25.1059 C11.445,25.2305 10.9425,25.9356 11.0674,26.6803 C11.7704,30.8721 13.9465,34.7089 17.1951,37.4838 C20.4806,40.2906 24.6731,41.8363 29,41.8363 C39.0266,41.8363 47.1837,33.6791 47.1837,23.6526 C47.1837,13.6261 39.0266,5.46875 29,5.46875 Z M25.0353,21.4991 C25.0353,19.3129 26.8139,17.5342 29,17.5342 C31.1862,17.5342 32.9649,19.3129 32.9649,21.4991 L32.9649,22.8323 C32.9649,25.0184 31.1862,26.797 29,26.797 C26.8139,26.797 25.0353,25.0184 25.0353,22.8323 L25.0353,21.4991 Z M29,39.1018 C25.2986,39.1018 21.8766,37.8093 19.1981,35.6179 C21.034,31.8922 24.787,29.5314 29,29.5314 C33.2043,29.5314 36.9503,31.8825 38.7903,35.5948 C36.1233,37.785 32.7126,39.1018 29,39.1018 Z" id="Shape"></path>
            <path d="M41.6271,54.4143 L22.213,54.4143 C21.4581,54.4143 20.8458,55.0266 20.8458,55.7816 C20.8458,56.5365 21.4581,57.1488 22.213,57.1488 L41.6271,57.1488 C42.3821,57.1488 42.9942,56.5365 42.9942,55.7816 C42.9942,55.0266 42.3821,54.4143 41.6271,54.4143 Z" id="Path"></path>
            <path d="M17.3393,47.1584 C17.085,46.9038 16.7323,46.7578 16.3728,46.7578 C16.0132,46.7578 15.6605,46.904 15.4062,47.1584 C15.1518,47.4127 15.0056,47.7654 15.0056,48.125 C15.0056,48.4858 15.152,48.8372 15.4062,49.0913 C15.6605,49.3459 16.0132,49.4921 16.3728,49.4921 C16.7323,49.4921 17.085,49.3459 17.3393,49.0913 C17.595,48.8372 17.7399,48.4845 17.7399,48.125 C17.7399,47.7654 17.595,47.4127 17.3393,47.1584 Z" id="Path"></path>
            <path d="M17.3393,54.8146 C17.085,54.5601 16.7336,54.4141 16.3728,54.4141 C16.0132,54.4141 15.6605,54.5603 15.4062,54.8146 C15.1518,55.069 15.0056,55.4217 15.0056,55.7812 C15.0056,56.1421 15.152,56.4935 15.4062,56.7476 C15.6605,57.0021 16.0132,57.1483 16.3728,57.1483 C16.7323,57.1483 17.085,57.0021 17.3393,56.7476 C17.595,56.4935 17.7399,56.1421 17.7399,55.7812 C17.7399,55.4217 17.595,55.069 17.3393,54.8146 Z" id="Path"></path>
            <path d="M41.6271,46.7581 L22.213,46.7581 C21.4581,46.7581 20.8458,47.3704 20.8458,48.1254 C20.8458,48.8802 21.4581,49.4925 22.213,49.4925 L41.6271,49.4925 C42.3821,49.4925 42.9942,48.8802 42.9942,48.1254 C42.9942,47.3704 42.3821,46.7581 41.6271,46.7581 Z" id="Path"></path>
            <path d="M16.0974,7.87907 C15.5633,7.34532 14.6978,7.34532 14.1639,7.87907 L9.71141,12.3315 L8.18986,10.8099 C7.6557,10.2762 6.79027,10.2762 6.25625,10.8099 C5.72236,11.3439 5.72236,12.2096 6.25625,12.7435 L8.74454,15.2318 C9.01155,15.4987 9.36127,15.6323 9.71127,15.6323 C10.0613,15.6323 10.411,15.4987 10.6781,15.2319 L16.0974,9.81269 C16.6314,9.27866 16.6314,8.41296 16.0974,7.87907 Z" id="Path"></path>
            <path d="M11.2266,0 C5.04483,0 0.015625,5.02921 0.015625,11.2109 C0.015625,17.3927 5.04483,22.4218 11.2266,22.4218 C17.4084,22.4218 22.4375,17.3927 22.4375,11.2109 C22.4375,5.02921 17.4084,0 11.2266,0 Z M11.2266,19.6875 C6.55256,19.6875 2.75,15.8849 2.75,11.2109 C2.75,6.53693 6.55256,2.73438 11.2266,2.73438 C15.9005,2.73438 19.7032,6.53693 19.7032,11.2109 C19.7032,15.8849 15.9005,19.6875 11.2266,19.6875 Z" id="Shape"></path>
        </g>
    </g>
</svg>

<svg width="58" height="70" xmlns="http://www.w3.org/2000/svg"><g fill="#FFF"><path d="M2.35 23.233a1.377 1.377 0 00-.967-.401c-.36 0-.712.146-.967.4-.254.255-.4.608-.4.967 0 .36.146.712.4.967.255.254.607.4.967.4s.712-.146.966-.4c.255-.255.401-.607.401-.967s-.146-.712-.4-.966zM53.883 0H26.22a1.367 1.367 0 000 2.734h27.663a1.37 1.37 0 011.367 1.368v61.796a1.37 1.37 0 01-1.367 1.368H4.117a1.369 1.369 0 01-1.367-1.368V29.303a1.367 1.367 0 00-2.734 0v36.595A4.106 4.106 0 004.117 70h49.766a4.106 4.106 0 004.101-4.102V4.102A4.106 4.106 0 0053.883 0z"/><path d="M29 5.469c-.93 0-1.865.07-2.779.21a1.367 1.367 0 00.415 2.704A15.64 15.64 0 0129 8.203c8.519 0 15.45 6.93 15.45 15.45a15.38 15.38 0 01-3.634 9.94 13.67 13.67 0 00-7.137-5.973 6.678 6.678 0 002.02-4.788V21.5c0-3.694-3.005-6.7-6.699-6.7a6.707 6.707 0 00-6.7 6.7v1.333c0 1.875.776 3.571 2.021 4.788a13.63 13.63 0 00-3.103 1.609 13.672 13.672 0 00-4.049 4.389 15.401 15.401 0 01-3.405-7.39 1.368 1.368 0 00-2.697.452A18.187 18.187 0 0029 41.836c10.027 0 18.184-8.157 18.184-18.183 0-10.027-8.157-18.184-18.184-18.184zm-3.965 16.03A3.97 3.97 0 0129 17.534a3.97 3.97 0 013.965 3.965v1.333A3.97 3.97 0 0129 26.797a3.97 3.97 0 01-3.965-3.965V21.5zM29 39.102a15.431 15.431 0 01-9.802-3.484A10.87 10.87 0 0129 29.53a10.87 10.87 0 019.79 6.064A15.379 15.379 0 0129 39.102zm12.627 15.312H22.213a1.367 1.367 0 000 2.735h19.414a1.367 1.367 0 000-2.735zM17.34 47.158a1.376 1.376 0 00-.967-.4c-.36 0-.713.146-.967.4-.254.255-.4.607-.4.967s.146.712.4.966c.255.255.607.401.967.401s.712-.146.966-.4a1.372 1.372 0 000-1.933zm0 7.657a1.374 1.374 0 00-.967-.4c-.36 0-.713.145-.967.4-.254.254-.4.607-.4.966 0 .361.146.712.4.967.255.254.607.4.967.4s.712-.146.966-.4a1.368 1.368 0 000-1.933zm24.287-8.057H22.213a1.367 1.367 0 000 2.734h19.414a1.367 1.367 0 000-2.734zM16.097 7.88a1.368 1.368 0 00-1.933 0L9.71 12.331 8.19 10.81a1.368 1.368 0 00-1.934 1.933l2.489 2.489a1.363 1.363 0 001.933 0l5.42-5.42a1.368 1.368 0 000-1.933z"/><path d="M11.227 0C5.045 0 .016 5.03.016 11.21c0 6.183 5.029 11.212 11.21 11.212 6.182 0 11.211-5.03 11.211-11.211C22.438 5.029 17.409 0 11.227 0zm0 19.688c-4.674 0-8.477-3.803-8.477-8.477s3.803-8.477 8.477-8.477c4.673 0 8.476 3.803 8.476 8.477s-3.803 8.476-8.476 8.476z"/></g></svg>
